src/images/patterns/patt_1.svg

<svg width="118" height="4"><path d="M0 4h1V0H0v4zm52 0h-1V0h1v4zm66 0h-1V0h1v4zM85 4h-1V0h1v4zm12 0h1V0h-1v4zm4 0h-1V0h1v4z" fill="current-color"/></svg>

<svg width="118" height="4" viewBox="0 0 118 4" fill="none" xmlns="http://www.w3.org/2000/svg">
<path fill-rule="evenodd" clip-rule="evenodd" d="M0 4H1V0H0V4ZM52 4H51V0H52V4ZM118 4H117V0H118V4ZM85 4H84V0H85V4ZM97 4H98V0H97V4ZM101 4H100V0H101V4Z" fill="white"/>
</svg>
